X:238
T:Evans
R:Hornpipe
B:The Athole Colletion
M:C|
L:1/8
K:G
Bc|dgfe dcBA|GBDG B2 AG|FADF A2 GF|GBDG B2 Bc|dgfe dcBA|
GBDG B2 AG|FGAB cdef|g2 g2 g2:|
|:ag|fadf a2 gf|gbdg b2 ag|fadf a2 gf|gbdg b2 Bc|dgfe dcBA|GBDG B2 AG|
FGAB cdef|g2 g2 g2:|

